package/batocera/utils/batocera-steam/night-mode-warm.cube
TITLE "Batocera Night Mode Warm"
LUT_3D_SIZE 2
DOMAIN_MIN 0.0 0.0 0.0
DOMAIN_MAX 1.0 1.0 1.0
0.0 0.0 0.0
1.0 0.0 0.0
0.0 0.94 0.0
1.0 0.94 0.0
0.0 0.0 0.82
1.0 0.0 0.82
0.0 0.94 0.82
1.0 0.94 0.82
